vendor/assets/images/icons/play.svg

<svg baseProfile="tiny" xmlns="http://www.w3.org/2000/svg" viewBox="0 0 32 288"><path fill="#fff" d="M16 0C7.2 0 0 7.2 0 16s7.2 16 16 16 16-7.2 16-16S24.8 0 16 0zm-3.5 22.4V9.6l9.6 6.4-9.6 6.4z"/><path fill="#333" d="M16 64.8c-8.8 0-16 7.2-16 16s7.2 16 16 16 16-7.2 16-16-7.2-16-16-16zm-3.5 22.4V74.4l9.6 6.4-9.6 6.4z"/><path fill="#97999A" d="M16 128.9c-8.8 0-16 7.2-16 16s7.2 16 16 16 16-7.2 16-16-7.2-16-16-16zm-3.5 22.4v-12.8l9.6 6.4-9.6 6.4z"/><path fill="#008FE9" d="M16 193.1c-8.8 0-16 7.2-16 16s7.2 16 16 16 16-7.2 16-16-7.2-16-16-16zm-3.5 22.4v-12.8l9.6 6.4-9.6 6.4z"/><path fill="#1C1F4E" d="M16 256c-8.8 0-16 7.2-16 16s7.2 16 16 16 16-7.2 16-16-7.2-16-16-16zm-3.5 22.4v-12.8l9.6 6.4-9.6 6.4z"/></svg>

<?xml version="1.0" encoding="utf-8"?>
<!-- Generator: Adobe Illustrator 17.1.0, SVG Export Plug-In . SVG Version: 6.00 Build 0)  -->
<!DOCTYPE svg PUBLIC "-//W3C//DTD SVG 1.1 Tiny//EN" "http://www.w3.org/Graphics/SVG/1.1/DTD/svg11-tiny.dtd">
<svg version="1.1" baseProfile="tiny" id="Layer_1" xmlns="http://www.w3.org/2000/svg" xmlns:xlink="http://www.w3.org/1999/xlink"
	 x="0px" y="0px" viewBox="0 0 32 288" xml:space="preserve">
<g>
	<path fill="#FFFFFF" d="M16,0C7.2,0,0,7.2,0,16s7.2,16,16,16s16-7.2,16-16S24.8,0,16,0z M12.5,22.4V9.6l9.6,6.4L12.5,22.4z"/>
	<path fill="#333333" d="M16,64.8c-8.8,0-16,7.2-16,16s7.2,16,16,16s16-7.2,16-16S24.8,64.8,16,64.8z M12.5,87.2V74.4l9.6,6.4
		L12.5,87.2z"/>
	<path fill="#97999A" d="M16,128.9c-8.8,0-16,7.2-16,16s7.2,16,16,16s16-7.2,16-16S24.8,128.9,16,128.9z M12.5,151.3v-12.8l9.6,6.4
		L12.5,151.3z"/>
	<path fill="#008FE9" d="M16,193.1c-8.8,0-16,7.2-16,16s7.2,16,16,16s16-7.2,16-16S24.8,193.1,16,193.1z M12.5,215.5v-12.8l9.6,6.4
		C22.1,209.1,12.5,215.5,12.5,215.5z"/>
	<path fill="#1C1F4E" d="M16,256c-8.8,0-16,7.2-16,16s7.2,16,16,16s16-7.2,16-16S24.8,256,16,256z M12.5,278.4v-12.8l9.6,6.4
		L12.5,278.4z"/>
</g>
</svg>
